packages/flame/svg/Icons/icon-hardware.svg

<?xml version="1.0" encoding="UTF-8"?>
<svg width="16px" height="16px" viewBox="0 0 16 16" version="1.1" xmlns="http://www.w3.org/2000/svg" xmlns:xlink="http://www.w3.org/1999/xlink">
    <!-- Generator: sketchtool 64 (101010) - https://sketch.com -->
    <title>94923679-2D74-4AD2-942B-9809ACDD8CD7@1.00x</title>
    <desc>Created with sketchtool.</desc>
    <g id="Symbols" stroke="none" stroke-width="1" fill="none" fill-rule="evenodd">
        <g id="hardware" fill="#232A3B">
            <g transform="translate(0.000000, 0.000000)">
                <path d="M15.5,11 C15.7761424,11 16,11.2238576 16,11.5 L16,16 L14,16 L14,13 C14,12.4477153 13.5522847,12 13,12 L13,12 L10,12 L10,12 L10,11.5 C10,11.2238576 10.2238576,11 10.5,11 L15.5,11 Z" id="base-2" opacity="0.700000048"></path>
                <path d="M12.5,13 C12.7761424,13 13,13.2238576 13,13.5 L13,15.5 C13,15.7761424 12.7761424,16 12.5,16 L0.5,16 C0.223857625,16 3.38176876e-17,15.7761424 0,15.5 L0,13.5 C-3.38176876e-17,13.2238576 0.223857625,13 0.5,13 L12.5,13 Z M6.5,14 C6.22385763,14 6,14.2238576 6,14.5 C6,14.7761424 6.22385763,15 6.5,15 C6.77614237,15 7,14.7761424 7,14.5 C7,14.2238576 6.77614237,14 6.5,14 Z M11.5,14 L10.5,14 C10.2238576,14 10,14.2238576 10,14.5 C10,14.7454599 10.1768752,14.9496084 10.4101244,14.9919443 L10.5,15 L11.5,15 C11.7761424,15 12,14.7761424 12,14.5 C12,14.2238576 11.7761424,14 11.5,14 Z M2.5,14 L1.5,14 C1.22385763,14 1,14.2238576 1,14.5 C1,14.7454599 1.17687516,14.9496084 1.41012437,14.9919443 L1.5,15 L2.5,15 C2.77614237,15 3,14.7761424 3,14.5 C3,14.2238576 2.77614237,14 2.5,14 Z M12,0 C12.5522847,-1.01453063e-16 13,0.44771525 13,1 L13,8 C13,8.55228475 12.5522847,9 12,9 L9,9 L9,12 L4,12 L4,9 L1,9 C0.44771525,9 6.76353751e-17,8.55228475 0,8 L0,1 C-6.76353751e-17,0.44771525 0.44771525,1.01453063e-16 1,0 L12,0 Z M12,1 L1,1 L1,8 L12,8 L12,1 Z" id="base-1"></path>
            </g>
        </g>
    </g>
</svg>

<svg xmlns="http://www.w3.org/2000/svg" viewBox="0 0 16 16"><g id="hardware"><path id="base-2" d="M15.5 11a.5.5 0 0 1 .5.5V16h-2v-3a1 1 0 0 0-1-1h-3v-.5a.5.5 0 0 1 .5-.5h5z" opacity=".7"/><path id="base-1" d="M12.5 13a.5.5 0 0 1 .5.5v2a.5.5 0 0 1-.5.5H.5a.5.5 0 0 1-.5-.5v-2a.5.5 0 0 1 .5-.5h12zm-6 1a.5.5 0 1 0 0 1 .5.5 0 0 0 0-1zm5 0h-1a.5.5 0 0 0-.09.992l.09.008h1a.5.5 0 1 0 0-1zm-9 0h-1a.5.5 0 0 0-.09.992L1.5 15h1a.5.5 0 1 0 0-1zM12 0a1 1 0 0 1 1 1v7a1 1 0 0 1-1 1H9v3H4V9H1a1 1 0 0 1-1-1V1a1 1 0 0 1 1-1h11zm0 1H1v7h11V1z"/></g></svg>
